src/assets/duotone/MenuBoard.svg

<?xml version="1.0" encoding="UTF-8"?>
<svg width="24" height="24" viewBox="0 0 24 24" xmlns="http://www.w3.org/2000/svg">
 <path d="m21.99 6.02c0.02 0.24 0 0.48999-0.06 0.73999l-3.37 13.53c-0.24 1.01-1.1399 1.71-2.1799 1.71h-13.14c-1.51 0-2.58-1.48-2.14-2.93l4.21-13.53c0.29-0.94 1.16-1.58 2.14-1.58h12.3c0.9599 0 1.74 0.57 2.07 1.37 0.1 0.21 0.1499 0.45 0.1699 0.69z" opacity=".4"/>
 <path d="m22.99 19.62c0.1 1.29-0.92 2.38-2.21 2.38h-4.4c1.04 0 1.94-0.7 2.18-1.71l3.37-13.53c0.06-0.25 0.08-0.49999 0.06-0.73999l0.01-0.02002 0.99 13.62z"/>
 <path d="m9.6798 7.1304c-0.06 0-0.12-0.01002-0.18-0.02002-0.4-0.1-0.64998-0.49998-0.54998-0.90998l1.04-4.32c0.10004-0.4 0.50004-0.63999 0.91004-0.54999 0.4 0.1 0.65 0.49997 0.55 0.90997l-1.04 4.32c-0.08 0.34-0.39 0.57001-0.73003 0.57001z"/>
 <path d="m16.38 7.1398c-0.05 0-0.11-2e-5 -0.16-0.02002-0.4-0.09-0.6599-0.49001-0.5799-0.89001l0.9399-4.34c0.09-0.41 0.49-0.66002 0.89-0.58002 0.4 0.09 0.66 0.49002 0.58 0.89002l-0.94 4.34c-0.07 0.36001-0.38 0.60004-0.73 0.60004z"/>
 <path d="m15.7 12.75h-8c-0.41 0-0.75-0.34-0.75-0.75s0.34-0.75 0.75-0.75h8c0.41 0 0.75 0.34 0.75 0.75s-0.34 0.75-0.75 0.75z"/>
 <path d="m14.7 16.75h-8c-0.41 0-0.75-0.34-0.75-0.75s0.34-0.75 0.75-0.75h8c0.41 0 0.75 0.34 0.75 0.75s-0.34 0.75-0.75 0.75z"/>
</svg>

<svg width="24" height="24" viewBox="0 0 24 24"  xmlns="http://www.w3.org/2000/svg">
<path opacity="0.4" d="M21.9897 6.01996C22.0097 6.25996 21.9897 6.50995 21.9297 6.75995L18.5597 20.2899C18.3197 21.2999 17.4198 21.9999 16.3798 21.9999H3.23974C1.72974 21.9999 0.659755 20.5199 1.09976 19.0699L5.30975 5.53992C5.59975 4.59992 6.46976 3.95996 7.44976 3.95996H19.7498C20.7097 3.95996 21.4898 4.52996 21.8198 5.32996C21.9198 5.53996 21.9697 5.77996 21.9897 6.01996Z" />
<path d="M22.9899 19.62C23.0899 20.91 22.0699 22 20.7799 22H16.3799C17.4199 22 18.3199 21.3 18.5599 20.29L21.9299 6.76001C21.9899 6.51001 22.0099 6.26002 21.9899 6.02002L21.9999 6L22.9899 19.62Z" />
<path d="M9.67977 7.13038C9.61977 7.13038 9.55977 7.12036 9.49977 7.11036C9.09977 7.01036 8.84979 6.61038 8.94979 6.20038L9.98976 1.88038C10.0898 1.48038 10.4898 1.24039 10.8998 1.33039C11.2998 1.43039 11.5498 1.83036 11.4498 2.24036L10.4098 6.56037C10.3298 6.90037 10.0198 7.13038 9.67977 7.13038Z" />
<path d="M16.3799 7.1398C16.3299 7.1398 16.2699 7.13978 16.2199 7.11978C15.8199 7.02978 15.56 6.62977 15.64 6.22977L16.5799 1.8898C16.6699 1.4798 17.0699 1.22978 17.4699 1.30978C17.8699 1.39978 18.1299 1.7998 18.0499 2.1998L17.1099 6.53976C17.0399 6.89977 16.7299 7.1398 16.3799 7.1398Z" />
<path d="M15.7002 12.75H7.7002C7.2902 12.75 6.9502 12.41 6.9502 12C6.9502 11.59 7.2902 11.25 7.7002 11.25H15.7002C16.1102 11.25 16.4502 11.59 16.4502 12C16.4502 12.41 16.1102 12.75 15.7002 12.75Z" />
<path d="M14.7002 16.75H6.7002C6.2902 16.75 5.9502 16.41 5.9502 16C5.9502 15.59 6.2902 15.25 6.7002 15.25H14.7002C15.1102 15.25 15.4502 15.59 15.4502 16C15.4502 16.41 15.1102 16.75 14.7002 16.75Z" />
</svg>
